public/avatar/body/106.svg

<svg xmlns:xlink="http://www.w3.org/1999/xlink" height="82" width="84.85" xmlns="http://www.w3.org/2000/svg"><g transform="translate(37.4 42.25)"><use height="38" transform="translate(-11.95 -17.45)" width="32.05" xlink:href="#a"/><use height="38.95" transform="translate(-12.45 -17.95)" width="33.05" xlink:href="#b"/><use height="22.2" transform="translate(-13.4 -1.25)" width="35.45" xlink:href="#c"/></g><defs><path d="M27.35 7.4q2.15 4.15 3.55 8.75 1.45 4.7 1.15 9.5-.35 4.95-4.2 8.1-3.8 3.2-8.75 4.05l-2.6.2q-3.6 0-7.05-1.15-4.65-1.6-7.1-5.5Q-.2 27.4.05 23q.2-4.4 2-9.3Q3.85 8.75 7 5.05 10.1 1.3 14.7.1l1.8-.1q1.9.05 3.7.8 4.75 2.05 7.15 6.6" fill="#cfa677" fill-rule="evenodd" transform="translate(-.05)" id="d"/><path d="M27.35 7.4Q24.95 2.85 20.2.8 17.55-.3 14.7.1 10.1 1.3 7 5.05q-3.15 3.7-4.95 8.65-1.8 4.9-2 9.3-.25 4.4 2.3 8.35 2.45 3.9 7.1 5.5 4.65 1.55 9.65.95 4.95-.85 8.75-4.05 3.85-3.15 4.2-8.1.3-4.8-1.15-9.5-1.4-4.6-3.55-8.75Z" fill="none" stroke="#000" stroke-linecap="round" stroke-linejoin="round" transform="translate(.45 .5)" id="e"/><use height="38" width="32.05" xlink:href="#d" id="a"/><use height="38.95" width="33.05" xlink:href="#e" id="b"/><g id="c"><path d="M34.55 5.65Q34.2 2.6 33.2 1.6q-.8-.9-1.15-.85l-1.45.85q-1.7 1.05-2.85 2.5l-2.4 2.7q-1.1 1.65-2.2 2.7-2.1 1.95-5.4 1.95-3.35 0-5.35-1.85-1.7-2.15-2.45-2.8-2-3-5.05-4.85-1.95-1.15-3.45.5-.95 1.1-.6 4.9.3 3.65 1.7 5.7.7 1.05 1.25 2.95l1.05 2.45q.8 1.1 4.75 2l8.05.95v.05l.05-.05 3.6-.3.55-.1 1.05.05 3.95-.45q1.65-.3 3.35-1.5.9-.65 1.45-4.3l2.45-4.35q.85-1.6.45-4.8Z" fill="none" stroke="#000" stroke-linecap="round" stroke-linejoin="round" stroke-width="1.5"/><path d="M11.95 5.55q2.9-3.8 5.25-5.2 1.1-.65 1.6-.45l1.4 1.2q.9.9.7 4.1-.15 3.1-1.1 4.85-2.15 4.1-1.8 4.85l-1.6.5q-4.1 4.7-12.1 4.75l-.05.05v-.05l-8.05-.95q-3.95-.9-4.75-2l-1.05-2.45q-.55-1.9-1.25-2.95-.95-1.4-1.55-5.15-.7-4.2.45-5.45Q-10.3-.35-8.5.7q2.95 1.8 5.05 4.85L0 7.6q3.35 1.8 4.25 1.8 1.35 0 7.7-3.85" fill="#c90000" fill-rule="evenodd" transform="translate(13.4 1.25)"/><path d="M19.05 3.2q2.75-.85 2.15 2.5-.5 2.7-2.3 5.55-.4.65-.85 3.5-.35 2.5-1.25 3.1-1.7 1.2-3.35 1.5l-3.95.45-4.25-.25q.9-.25 1.45-2 .55-2 .85-2.65 3.75-4.75 4.75-6.7.6-1.1 3.05-2.85 2.35-1.7 3.7-2.15" fill="#a60000" fill-rule="evenodd" transform="translate(13.4 1.25)"/><path d="M-7.95 16.85q3.65 2.75 12.5 2.75 8.9 0 11.65-2.25" fill="none" stroke="red" stroke-linecap="round" stroke-linejoin="round" transform="translate(13.4 1.25)"/><path d="M1.55 16.7v-5.25m2.25 0L5 11.4q1.25 0 1.55.55.5.9-2.6 4.65" fill="none" stroke="#ffe100" stroke-linecap="round" stroke-linejoin="round" transform="translate(13.4 1.25)"/><path d="m18.9.35-.65.1q-2.25.95-3.1 1.7-.85.75-3.35 3.8-4.65 3-6 3.45l-1.7.4-1.85-.4-5.95-3.45q-2.55-3.05-3.4-3.8l-3.1-1.7h-.4l.15-.8 1.4.35q1.5.55 2.3 1.4 3.35 3.5 4.8 4.4L4.1 8.35 10 5.8q1.45-.9 4.8-4.4Q16.05.05 18.75-.5l.15.85m-31.6 2.2 1.9.75q2 1.15 2.3 2.85.5 2.75-2.2 6.65l-1.85-6.7-.15-3.55m33.55-.2-.1 3.55-1.9 6.7Q16.2 8.65 16.7 5.9q.3-1.7 2.25-2.8 1-.55 1.9-.75" fill="#0c8c3d" fill-rule="evenodd" transform="translate(13.4 1.25)"/><path d="m13.45 4.1 2.25 2.35q1.5 2.15 1.25 9.9M-5.3 4.1l-2.25 2.35q-1.5 2.15-1.25 9.9" fill="none" stroke="#ffe100" stroke-linecap="round" stroke-linejoin="round" transform="translate(13.4 1.25)"/></g></defs></svg>

<?xml version="1.0" encoding="UTF-8" standalone="no"?>
<svg xmlns:xlink="http://www.w3.org/1999/xlink" height="82.0px" width="84.85px" xmlns="http://www.w3.org/2000/svg">
  <g transform="matrix(1.0, 0.0, 0.0, 1.0, 37.4, 42.25)">
    <use height="38.0" transform="matrix(1.0, 0.0, 0.0, 1.0, -11.95, -17.45)" width="32.05" xlink:href="#sprite0"/>
    <use height="38.95" transform="matrix(1.0, 0.0, 0.0, 1.0, -12.45, -17.95)" width="33.05" xlink:href="#sprite1"/>
    <use height="22.2" transform="matrix(1.0, 0.0, 0.0, 1.0, -13.4, -1.25)" width="35.45" xlink:href="#shape2"/>
  </g>
  <defs>
    <g id="sprite0" transform="matrix(1.0, 0.0, 0.0, 1.0, -0.05, 0.0)">
      <use height="38.0" transform="matrix(1.0, 0.0, 0.0, 1.0, 0.05, 0.0)" width="32.05" xlink:href="#shape0"/>
    </g>
    <g id="shape0" transform="matrix(1.0, 0.0, 0.0, 1.0, -0.05, 0.0)">
      <path d="M27.35 7.4 Q29.5 11.55 30.9 16.15 32.35 20.85 32.05 25.65 31.7 30.6 27.85 33.75 24.05 36.95 19.1 37.8 L16.5 38.0 Q12.9 38.0 9.45 36.85 4.8 35.25 2.35 31.35 -0.2 27.4 0.05 23.0 0.25 18.6 2.05 13.7 3.85 8.75 7.0 5.05 10.1 1.3 14.7 0.1 L16.5 0.0 Q18.4 0.05 20.2 0.8 24.95 2.85 27.35 7.4" fill="#cfa677" fill-rule="evenodd" stroke="none"/>
    </g>
    <g id="sprite1" transform="matrix(1.0, 0.0, 0.0, 1.0, 0.45, 0.5)">
      <use height="38.95" transform="matrix(1.0, 0.0, 0.0, 1.0, -0.45, -0.5)" width="33.05" xlink:href="#shape1"/>
    </g>
    <g id="shape1" transform="matrix(1.0, 0.0, 0.0, 1.0, 0.45, 0.5)">
      <path d="M27.35 7.4 Q24.95 2.85 20.2 0.8 17.55 -0.3 14.7 0.1 10.1 1.3 7.0 5.05 3.85 8.75 2.05 13.7 0.25 18.6 0.05 23.0 -0.2 27.4 2.35 31.35 4.8 35.25 9.45 36.85 14.1 38.4 19.1 37.8 24.05 36.95 27.85 33.75 31.7 30.6 32.05 25.65 32.35 20.85 30.9 16.15 29.5 11.55 27.35 7.4 Z" fill="none" stroke="#000000" stroke-linecap="round" stroke-linejoin="round" stroke-width="1.0"/>
    </g>
    <g id="shape2" transform="matrix(1.0, 0.0, 0.0, 1.0, 13.4, 1.25)">
      <path d="M21.15 4.4 Q20.8 1.35 19.8 0.35 19.0 -0.55 18.65 -0.5 L17.2 0.35 Q15.5 1.4 14.35 2.85 L11.95 5.55 Q10.85 7.2 9.75 8.25 7.65 10.2 4.35 10.2 1.0 10.2 -1.0 8.35 -2.7 6.2 -3.45 5.55 -5.45 2.55 -8.5 0.7 -10.45 -0.45 -11.95 1.2 -12.9 2.3 -12.55 6.1 -12.25 9.75 -10.85 11.8 -10.15 12.85 -9.6 14.75 L-8.55 17.2 Q-7.75 18.3 -3.8 19.2 L4.25 20.15 4.25 20.2 4.3 20.15 7.9 19.85 8.45 19.75 9.5 19.8 13.45 19.35 Q15.1 19.05 16.8 17.85 17.7 17.2 18.25 13.55 L20.7 9.2 Q21.55 7.6 21.15 4.4 Z" fill="none" stroke="#000000" stroke-linecap="round" stroke-linejoin="round" stroke-width="1.5"/>
      <path d="M11.95 5.55 Q14.85 1.75 17.2 0.35 18.3 -0.3 18.8 -0.1 L20.2 1.1 Q21.1 2.0 20.9 5.2 20.75 8.3 19.8 10.05 17.65 14.15 18.0 14.9 L16.4 15.4 Q12.3 20.1 4.3 20.15 L4.25 20.2 4.25 20.15 -3.8 19.2 Q-7.75 18.3 -8.55 17.2 L-9.6 14.75 Q-10.15 12.85 -10.85 11.8 -11.8 10.4 -12.4 6.65 -13.1 2.45 -11.95 1.2 -10.3 -0.35 -8.5 0.7 -5.55 2.5 -3.45 5.55 L0.0 7.6 Q3.35 9.4 4.25 9.4 5.6 9.4 11.95 5.55" fill="#c90000" fill-rule="evenodd" stroke="none"/>
      <path d="M19.05 3.2 Q21.8 2.35 21.2 5.7 20.7 8.4 18.9 11.25 18.5 11.9 18.05 14.75 17.7 17.25 16.8 17.85 15.1 19.05 13.45 19.35 L9.5 19.8 5.25 19.55 Q6.15 19.3 6.7 17.55 7.25 15.55 7.55 14.9 11.3 10.15 12.3 8.2 12.9 7.1 15.35 5.35 17.7 3.65 19.05 3.2" fill="#a60000" fill-rule="evenodd" stroke="none"/>
      <path d="M-7.95 16.85 Q-4.3 19.6 4.55 19.6 13.45 19.6 16.2 17.35" fill="none" stroke="#ff0000" stroke-linecap="round" stroke-linejoin="round" stroke-width="1.0"/>
      <path d="M1.55 16.7 L1.55 11.45" fill="none" stroke="#ffe100" stroke-linecap="round" stroke-linejoin="round" stroke-width="1.0"/>
      <path d="M3.8 11.45 L5.0 11.4 Q6.25 11.4 6.55 11.95 7.05 12.85 3.95 16.6" fill="none" stroke="#ffe100" stroke-linecap="round" stroke-linejoin="round" stroke-width="1.0"/>
      <path d="M18.9 0.35 L18.25 0.45 Q16.0 1.4 15.15 2.15 14.3 2.9 11.8 5.95 7.15 8.95 5.8 9.4 L4.1 9.8 2.25 9.4 -3.7 5.95 Q-6.25 2.9 -7.1 2.15 L-10.2 0.45 -10.6 0.45 -10.45 -0.35 -9.05 0.0 Q-7.55 0.55 -6.75 1.4 -3.4 4.9 -1.95 5.8 L4.1 8.35 10.0 5.8 Q11.45 4.9 14.8 1.4 16.05 0.05 18.75 -0.5 L18.9 0.35" fill="#0c8c3d" fill-rule="evenodd" stroke="none"/>
      <path d="M-12.7 2.55 L-10.8 3.3 Q-8.8 4.45 -8.5 6.15 -8.0 8.9 -10.7 12.8 L-12.55 6.1 -12.7 2.55" fill="#0c8c3d" fill-rule="evenodd" stroke="none"/>
      <path d="M20.85 2.35 L20.75 5.9 18.85 12.6 Q16.2 8.65 16.7 5.9 17.0 4.2 18.95 3.1 19.95 2.55 20.85 2.35" fill="#0c8c3d" fill-rule="evenodd" stroke="none"/>
      <path d="M13.45 4.1 L15.7 6.45 Q17.2 8.6 16.95 16.35" fill="none" stroke="#ffe100" stroke-linecap="round" stroke-linejoin="round" stroke-width="1.0"/>
      <path d="M-5.3 4.1 L-7.55 6.45 Q-9.05 8.6 -8.8 16.35" fill="none" stroke="#ffe100" stroke-linecap="round" stroke-linejoin="round" stroke-width="1.0"/>
    </g>
  </defs>
</svg>
